icon/fa/nfc-symbol.svg

<svg xmlns="http://www.w3.org/2000/svg" viewBox="0 0 576 512"><!--! Font Awesome Free 6.1.2 by @fontawesome - https://fontawesome.com License - https://fontawesome.com/license/free (Icons: CC BY 4.0, Fonts: SIL OFL 1.1, Code: MIT License) Copyright 2022 Fonticons, Inc.--><path d="M392.9 32.43c7.7-1.33 15.7.46 21.2 4.98C498.2 96.14 544 173.7 544 255.1c0 83.1-45.8 160.8-129.9 219.5-4.8 4-11.7 5.9-18.6 5.3-7-.6-13.5-3.6-18.4-8.5L193.7 288.7c-5.6-5.5-8.7-13-9.6-20.9 0-7.8 4-15.3 9.5-20.9 5.6-5.5 13.1-8.7 20.9-8.7 7.9 0 15.4 3.1 20.9 8.6l165.1 164.4c54.6-44.7 84.3-99.2 84.3-156.1 0-61.6-36.9-122.2-103.9-169.34-6.4-4.52-10.8-11.41-12.1-19.14-1.4-7.73.4-15.68 5-22.09 4.5-6.41 11.4-10.76 19.1-12.1zm-206 447.17c-7.7 1.3-15.6-.5-22.1-5C81.67 415.9 35.84 338.2 35.84 255.1c0-81.4 45.83-158.96 128.96-217.69 5.7-4.01 12.6-5.88 19.6-5.29 6.9.59 13.4 3.6 18.3 8.51L386.1 223.3c5.6 5.5 8.7 13 8.7 20.9.1 6.9-3 15.3-8.6 20.9-5.5 5.5-13 8.7-20.9 8.7-7.8 0-16.2-3.1-20.9-8.6L179.3 100.7c-54.6 45.2-84.27 99.2-84.27 154.4 0 63.4 36.87 124 103.07 171.1 7.3 4.6 11.6 11.4 13 19.2 1.3 7.7-.5 15.7-5 22.1-4.5 6.4-11.4 10.7-19.2 12.1z"/></svg>

<svg xmlns="http://www.w3.org/2000/svg" viewBox="0 0 576 512" height="1em" width="1em">
<!--! Font Awesome Free 6.1.2 by @fontawesome - https://fontawesome.com License - https://fontawesome.com/license/free (Icons: CC BY 4.0, Fonts: SIL OFL 1.1, Code: MIT License) Copyright 2022 Fonticons, Inc.-->
  <path d="M392.9 32.43C400.6 31.1 408.6 32.89 414.1 37.41C498.2 96.14 544 173.7 544 255.1C544 338.2 498.2 415.9 414.1 474.6C409.3 478.6 402.4 480.5 395.5 479.9C388.5 479.3 382 476.3 377.1 471.4L193.7 288.7C188.1 283.2 185 275.7 184.1 267.8C184.1 260 188.1 252.5 193.6 246.9C199.2 241.4 206.7 238.2 214.5 238.2C222.4 238.2 229.9 241.3 235.4 246.8L400.5 411.2C455.1 366.5 484.8 312 484.8 255.1C484.8 193.5 447.9 132.9 380.9 85.76C374.5 81.24 370.1 74.35 368.8 66.62C367.4 58.89 369.2 50.94 373.8 44.53C378.3 38.12 385.2 33.77 392.9 32.43V32.43zM186.9 479.6C179.2 480.9 171.3 479.1 164.8 474.6C81.67 415.9 35.84 338.2 35.84 255.1C35.84 173.7 81.67 96.14 164.8 37.41C170.5 33.4 177.4 31.53 184.4 32.12C191.3 32.71 197.8 35.72 202.7 40.63L386.1 223.3C391.7 228.8 394.8 236.3 394.8 244.2C394.9 251.1 391.8 259.5 386.2 265.1C380.7 270.6 373.2 273.8 365.3 273.8C357.5 273.8 349.1 270.7 344.4 265.2L179.3 100.7C124.7 145.9 95.03 199.9 95.03 255.1C95.03 318.5 131.9 379.1 198.1 426.2C205.4 430.8 209.7 437.6 211.1 445.4C212.4 453.1 210.6 461.1 206.1 467.5C201.6 473.9 194.7 478.2 186.9 479.6V479.6z"/>
</svg>
